app/dist/images/icons/quotes-end.svg

<svg width="33" height="24" viewBox="0 0 33 24" fill="none" xmlns="http://www.w3.org/2000/svg">
<path d="M5.27556 0.0869141C3.42604 0.0869141 0.895125 1.35237 0.895125 3.98064C0.895125 5.34344 1.67387 6.12218 2.16058 6.21953C5.66493 6.80358 8.48788 9.04247 8.48788 12.4495C8.48788 16.4405 5.56759 18.8741 0.700439 20.9183L1.67387 23.6439C8.09851 21.9891 14.9125 17.5113 14.9125 10.3079C14.9125 3.88329 9.656 0.0869141 5.27556 0.0869141ZM23.0893 0.0869141C21.2398 0.0869141 18.7089 1.35237 18.7089 3.98064C18.7089 5.34344 19.3903 6.12218 19.9744 6.21953C23.3814 6.80358 26.2043 9.04247 26.2043 12.4495C26.2043 16.4405 23.284 18.8741 18.5142 20.9183L19.4876 23.6439C25.8149 21.9891 32.7263 17.5113 32.7263 10.3079C32.7263 3.88329 27.4698 0.0869141 23.0893 0.0869141Z" fill="white"/>
</svg>

<svg width="33" height="24" fill="none" xmlns="http://www.w3.org/2000/svg"><path d="M5.276.087C3.426.087.896 1.352.896 3.98c0 1.362.778 2.141 1.265 2.239 3.504.584 6.327 2.822 6.327 6.23 0 3.99-2.92 6.424-7.788 8.468l.974 2.726c6.425-1.655 13.239-6.133 13.239-13.336 0-6.424-5.257-10.22-9.637-10.22zm17.813 0c-1.85 0-4.38 1.265-4.38 3.894 0 1.362.681 2.141 1.265 2.239 3.407.584 6.23 2.822 6.23 6.23 0 3.99-2.92 6.424-7.69 8.468l.974 2.726c6.327-1.655 13.238-6.133 13.238-13.336C32.726 3.883 27.47.087 23.09.087z" fill="#fff"/></svg>
